X:465
T:
R:vals
S:Ur handl. Aug. Nybergs samling, Klintehamn.
O:Gotland, Klintehamn
M:3/4
L:1/8
K:Dm
(AB)|c2 A2 B2|c4 d2|B4 c2|A4 (fg)|a2 f2 g2|a4 ba|(ga)(gf)(ga)|f4::c2|c2 aaaa|a2 f2 c2|
d2 (ba)(bc')|b4 ge|c2 (ag)(ab)|a2 f2 d2|(cd)(ef)(ge)|f4::c'2|c'4 a2|a4 f2|(cd)(ef)(ga)|b4 (ge)|
f2 f2 a2|c'2 a2 f2|(cd)(ef)(ge)|f4::a2|(a>g)(f>e)(d>f)|(f>e)(e>^c)(A>c)|(d>^c)(d>e)(f>g)|
gabg a2|(a>g)(f>e)(d>f)|(f>e)(e>^c)(A>c)|(d>^c)(d>f)(e>^c)|d4:|

